flags/rs.svg

<svg width="512" height="512" viewBox="0 0 512 512" fill="none" xmlns="http://www.w3.org/2000/svg">
<rect x="512" y="376" width="512" height="240" transform="rotate(-180 512 376)" fill="var(--flag-palette-blue, #0052b4)"/>
<rect x="512" y="168" width="512" height="168" transform="rotate(-180 512 168)" fill="var(--flag-palette-bright-red, #d80027)"/>
<rect x="512" y="512" width="512" height="168" transform="rotate(-180 512 512)" fill="var(--flag-palette-white, #eeeeee)"/>
<path d="M66.1973 144.697V272.403C66.1973 345.047 161.098 367.306 161.098 367.306C161.098 367.306 255.998 345.047 255.998 272.403V144.697H66.1973Z" fill="var(--flag-palette-bright-red, #d80027)"/>
<path d="M105.445 166.957H216.75V122.435L194.489 133.565L161.098 100.174L127.706 133.565L105.445 122.435V166.957Z" fill="var(--flag-palette-dark-yellow, #ffc635)"/>
<path d="M233.739 290.182L161.391 217.834L89.043 290.182L112.654 313.793L161.391 265.056L210.128 313.793L233.739 290.182Z" fill="var(--flag-palette-dark-yellow, #ffc635)"/>
<path d="M233.739 222.61H199.983C201.881 219.334 202.985 215.54 202.985 211.482C202.985 199.186 193.018 189.221 180.724 189.221C172.229 189.221 164.852 193.979 161.099 200.974C157.346 193.98 149.969 189.221 141.474 189.221C129.18 189.221 119.213 199.186 119.213 211.482C119.213 215.54 120.317 219.335 122.215 222.61H89.043C89.043 234.905 99.752 244.871 112.045 244.871H111.304C111.304 257.166 121.27 267.132 133.565 267.132C133.565 278.018 141.383 287.062 151.708 288.998L134.168 328.6C142.574 332.017 151.76 333.915 161.392 333.915C171.024 333.915 180.21 332.017 188.616 328.6L171.076 288.998C181.401 287.064 189.219 278.019 189.219 267.132C201.514 267.132 211.48 257.166 211.48 244.871H210.739C223.031 244.871 233.739 234.904 233.739 222.61Z" fill="var(--flag-palette-white, #eeeeee)"/>
</svg>

<svg xmlns="http://www.w3.org/2000/svg" width="512" height="512" fill="none"><path fill="var(--flag-palette-blue, #0052b4)" d="M512 376H0V136h512z"/><path fill="var(--flag-palette-bright-red, #d80027)" d="M512 168H0V0h512z"/><path fill="#EEE" d="M512 512H0V344h512z"/><path fill="var(--flag-palette-bright-red, #d80027)" d="M66.2 144.7v127.7c0 72.6 94.9 95 94.9 95s94.9-22.4 94.9-95V144.7z"/><path fill="var(--flag-palette-dark-yellow, #ffc635)" d="M105.4 167h111.4v-44.6l-22.3 11.2-33.4-33.4-33.4 33.4-22.3-11.2zm128.3 123.2-72.3-72.4L89 290.2l23.7 23.6 48.7-48.7 48.7 48.7z"/><path fill="#EEE" d="M233.7 222.6H200q3-5 3-11.1a22.3 22.3 0 0 0-42-10.5 22.3 22.3 0 1 0-38.9 21.6H89a23 23 0 0 0 23 22.3h-.7c0 12.3 10 22.2 22.3 22.2 0 11 7.8 20 18.1 21.9l-17.5 39.6a72 72 0 0 0 54.4 0L171.1 289c10.3-2 18.1-11 18.1-21.9 12.3 0 22.3-10 22.3-22.2h-.8a23 23 0 0 0 23-22.3"/></svg>
